X: 1
T: Polska i G efter Baumgarten
O: Gotland
R: Polska
M: 3/4
K: G
L: 1/16
Z: Andy Davey 2018
N: Finns i Riksförbundets låtasamling Jubileumslåtar 2007
(GF)GA B2BA A2G2 | (BA)Bc d2dc c2B2 | (dc)Bc (dc)Bc d2gd | (ed)cB B4A4 :| 
|: (DA)(cA) (DA)(cA) (DA)(cA) | (BA)Bc d2dc c2B2 | (DA)(cA) (DA)(cA) (DA)(cA) | (BA)Bc d2dc c2B2 | 
G2e2 e2dc (cB)AG | G2d2 d2cB (BA)GF | (GD)EF (GA)Bc (de)fg | (dc)BA A4 G4 :|

